X:1
T:Title
L:1/8
Q:1/4=160
M:6/4
K:G
V:1 treble nm="Church Organ, Staff"
V:1
 G2 c4 d2 B4 | G2 c4 d2 B4 | G2 c2 B2 A2 G2 E2 | C2 D4- D3/2 z/ C4 | G2 c4 d2 B4 | G2 c4 d2 B4 | %6
w: By~C.~Maitland * * *||||||
 c2 d4 G2 c4 | B2 A4 F2 G4- | G2 B4 c2 B4 | A2 G4 A2 B4- | B2 B4 c2 B4 | G2 A4- A3/2 z/ B4- | %12
w: ||||||
 B2 c4 c2 A4 | A2 d4 d2 B4- | B2 e4 e2 c4 | c2 d4- d3/2 z/ c4- | c2 c4 d2 c4 | A2 _B2 A2 G2 c4- | %18
w: ||||||
 c2 A4 _B2 A4 | =F2 G4- G3/2 z/ A4- | A2 d4 d2 B4 | B2 e4 e2 c4 | A2 G2 A2 B2 c4 | %23
w: |||||
 e2 d4- d3/2 z/ c4- | c6 z6 |] %25
w: ||

